; HEADER_BLOCK_START
; generated by OrcaSlicer 2.3.1 on 2026-01-17 at 17:17:28
; total layer number: 54
; filament_density: 1.24
; filament_diameter: 1.75
; max_z_height: 10.80
; HEADER_BLOCK_END

; THUMBNAIL_BLOCK_START

;
; THUMBNAIL_BLOCK_END

; THUMBNAIL_BLOCK_START

;
; THUMBNAIL_BLOCK_END

; external perimeters extrusion width = 0.45mm
; perimeters extrusion width = 0.45mm
; infill extrusion width = 0.45mm
; solid infill extrusion width = 0.45mm
; top infill extrusion width = 0.35mm
; first layer extrusion width = 0.42mm

; EXECUTABLE_BLOCK_START
M73 P0 R13
M201 X3000 Y2000 Z60 E10000
M203 X500 Y500 Z8 E30
M204 P1250 R1250 T1250
M205 X10.00 Y10.00 Z0.40 E5.00 ; sets the jerk limits, mm/sec
;TYPE:Custom
G90 ; use absolute coordinates
M83 ; extruder relative mode
M204 P1250 R1250 T1000
M104 S220 ; set extruder temp
M140 S45 ; set bed temp
G28 ; home all
G1 Y1.0 Z0.3 F10800 ; move print head up
M190 S45 ; wait for bed temp
M109 S220 ; wait for extruder temp
G92 E0.0
; initial load
G1 X205.0 E19 F1000
G1 Y1.6
M73 P1 R13
G1 X5.0 E19 F1000
G92 E0.0
; intro line
G1 Y2.0 Z0.2 F1000
M73 P3 R13
G1 X65.0 E9.0 F1000
G1 X105.0 E12.5 F1000
G92 E0.0
G90
G21
M83 ; use relative distances for extrusion
; filament start gcode
M106 S0
;LAYER_CHANGE
;Z:0.2
;HEIGHT:0.2
;BEFORE_LAYER_CHANGE
G92 E0.0
;0.2


G1 E-6 F2400
;AFTER_LAYER_CHANGE
;0.2
;_SET_FAN_SPEED_CHANGING_LAYER
M204 S800
G1 Z.6 F10800
G1 X91.497 Y98.231
G1 Z.6
G1 Z.2
G1 E6 F3000
;TYPE:Skirt
;WIDTH:0.42
G1 X96.511 Y97.839 E.15455
G1 X113.394 Y97.831 E.51875
G1 X121.2 Y98.442 E.24061
M73 P4 R12
G1 X122.529 Y98.94 E.04359
G1 X123.39 Y100.067 E.04359
G1 X123.566 Y101 E.02917
G1 X123.566 Y109 E.24582
G1 X123.173 Y110.363 E.04359
G1 X122.117 Y111.31 E.04359
G1 X121.201 Y111.558 E.02915
G1 X113.073 Y112.179 E.25048
G1 X96.817 Y112.177 E.49949
G1 X88.799 Y111.558 E.2471
G1 X87.471 Y111.06 E.04359
G1 X86.61 Y109.933 E.04359
G1 X86.434 Y109 E.02916
G1 X86.434 Y101 E.24582
G1 X86.827 Y99.637 E.04359
G1 X87.883 Y98.69 E.04359
G1 X88.799 Y98.442 E.02915
G1 X91.457 Y98.234 E.08193
G1 X91.486 Y98.621 F10800
G1 F3000
G1 X97.138 Y98.201 E.17417
G1 X113.364 Y98.207 E.49857
G1 X121.171 Y98.818 E.24061
G1 X122.385 Y99.305 E.04019
G1 X123.189 Y101 E.05764
G1 X123.189 Y109 E.24582
G1 X122.798 Y110.248 E.04019
G1 X121.172 Y111.182 E.05761
G1 X113.517 Y111.782 E.23593
G1 X96.839 Y111.8 E.51247
G1 X88.829 Y111.182 E.24686
G1 X87.615 Y110.695 E.04019
G1 X86.811 Y109 E.05763
G1 X86.811 Y101 E.24582
G1 X87.202 Y99.752 E.04019
G1 X88.828 Y98.818 E.05761
G1 X91.446 Y98.624 E.08065
; printing object brick.stl id:111167121538736 copy 0
G1 E-5.2 F2400
;WIPE_START
G1 F3000
G1 X92.443 Y98.55 E-.8
;WIPE_END
G1 Z.6 F10800
G1 X111.576 Y109.189 Z.6
G1 Z.2
G1 E6 F3000
;TYPE:Brim
G1 F2700
G1 X114.417 Y109.189 E.08731
G1 X114.123 Y109.282 E.00948
G1 X113.845 Y109.345 E.00876
G1 X113.407 Y109.408 E.01361
G1 X112.966 Y109.426 E.01356
G1 X112.527 Y109.401 E.01351
G1 X111.939 Y109.297 E.01835
G1 X111.614 Y109.2 E.01041
G1 E-5.11111 F2400
;WIPE_START
G1 F2700
G1 X112.614 Y109.196 E-.88889
;WIPE_END
G1 Z.6 F10800
G1 X106.4 Y109.189 Z.6
G1 Z.2
G1 E6 F3000
G1 F2700
G1 X106.122 Y109.282 E.00902
G1 X105.845 Y109.345 E.00871
G1 X105.407 Y109.408 E.01361
G1 X104.966 Y109.426 E.01356
G1 X104.527 Y109.401 E.01351
G1 X103.939 Y109.297 E.01835
G1 X103.576 Y109.189 E.01164
G1 X106.36 Y109.189 E.08555
G1 E-5.11111 F2400
;WIPE_START
G1 F2700
G1 X106.122 Y109.282 E-.22757
G1 X105.845 Y109.345 E-.25205
G1 X105.407 Y109.408 E-.39366
G1 X105.39 Y109.409 E-.0156
;WIPE_END
G1 Z.6 F10800
G1 X98.417 Y109.189 Z.6
G1 Z.2
G1 E6 F3000
G1 F2700
G1 X98.124 Y109.282 E.00948
G1 X97.845 Y109.345 E.00876
G1 X97.407 Y109.408 E.01361
G1 X96.966 Y109.426 E.01356
G1 X96.527 Y109.401 E.01351
G1 X95.939 Y109.297 E.01835
G1 X95.576 Y109.189 E.01164
G1 X98.377 Y109.189 E.08608
G1 E-5.11111 F2400
;WIPE_START
G1 F2700
G1 X98.124 Y109.282 E-.24046
G1 X97.845 Y109.345 E-.25352
G1 X97.407 Y109.408 E-.39365
G1 X97.406 Y109.408 E-.00126
;WIPE_END
G1 Z.6 F10800
G1 X98.377 Y100.811 Z.6
G1 Z.2
G1 E6 F3000
G1 F2700
G1 X95.6 Y100.811 E.08535
G1 X95.878 Y100.718 E.00902
M73 P5 R12
G1 X96.155 Y100.655 E.00871
G1 X96.591 Y100.592 E.01356
G1 X97.186 Y100.577 E.01828
G1 X97.692 Y100.628 E.01563
G1 X98.274 Y100.761 E.01833
G1 X98.416 Y100.811 E.00462
G1 E-5.11111 F2400
;WIPE_START
G1 F2700
G1 X97.416 Y100.811 E-.88889
;WIPE_END
G1 Z.6 F10800
G1 X98.416 Y102.766 Z.6
G1 Z.2
G1 E6 F3000
G1 F2700
G1 X100.82 Y102.766 E.07387
G1 X100.839 Y102.798 E.00115
G1 X100.946 Y102.88 E.00415
G1 X101.081 Y102.87 E.00415
G1 X101.18 Y102.766 E.00442
G1 X108.82 Y102.766 E.23473
G1 X108.946 Y102.88 E.00524
G1 X109.081 Y102.87 E.00415
G1 X109.18 Y102.766 E.00442
G1 X116.817 Y102.766 E.23464
G1 X116.923 Y102.95 E.00654
G1 X117.108 Y103.351 E.01358
G1 X117.252 Y103.769 E.01356
G1 X117.353 Y104.198 E.01356
G1 X117.412 Y104.635 E.01356
G1 X117.426 Y105.078 E.01361
G1 X117.412 Y105.363 E.00876
G1 X117.353 Y105.802 E.01361
G1 X117.252 Y106.232 E.01356
G1 X117.108 Y106.649 E.01356
G1 X116.923 Y107.05 E.01358
G1 X116.817 Y107.234 E.00654
G1 X109.179 Y107.234 E.23467
G1 X109.056 Y107.121 E.00515
G1 X108.921 Y107.13 E.00415
G1 X108.82 Y107.234 E.00448
G1 X101.18 Y107.234 E.23473
G1 X101.054 Y107.12 E.00524
G1 X100.919 Y107.13 E.00415
G1 X100.82 Y107.234 E.00443
G1 X93.18 Y107.234 E.23473
G1 X93.151 Y107.187 E.00172
G1 X92.891 Y106.647 E.0184
G1 X92.748 Y106.23 E.01356
G1 X92.678 Y105.955 E.00871
G1 X92.588 Y105.363 E.0184
G1 X92.574 Y104.924 E.01351
G1 X92.604 Y104.482 E.01361
G1 X92.646 Y104.2 E.00876
G1 X92.748 Y103.77 E.01356
G1 X92.951 Y103.211 E.01829
G1 X93.188 Y102.766 E.01549
G1 X98.376 Y102.766 E.1594
G1 E-5.11111 F2400
;WIPE_START
G1 F2700
G1 X99.376 Y102.766 E-.88889
;WIPE_END
G1 Z.6 F10800
G1 X95.63 Y103.19 Z.6
G1 Z.2
G1 E6 F3000
G1 F2700
G1 X95.645 Y103.292 E.00318
G1 X95.262 Y103.713 E.01749
G1 X95.042 Y104.083 E.01323
G1 X94.899 Y104.489 E.01323
G1 X94.839 Y104.916 E.01323
G1 X94.866 Y105.346 E.01323
G1 X94.976 Y105.762 E.01324
G1 X95.164 Y106.143 E.01305
G1 X95.39 Y106.443 E.01155
G1 X95.619 Y106.662 E.00974
G1 X95.653 Y106.76 E.00318
G1 X95.593 Y106.844 E.00318
G1 X95.541 Y106.857 E.00166
G1 X93.482 Y106.857 E.06326
G1 X93.38 Y106.793 E.0037
G1 X93.244 Y106.509 E.00968
G1 X93.051 Y105.891 E.01989
G1 X92.966 Y105.335 E.01729
G1 X92.952 Y104.936 E.01228
G1 X92.981 Y104.512 E.01304
G1 X93.107 Y103.888 E.01956
G1 X93.294 Y103.372 E.01687
G1 X93.383 Y103.203 E.00587
G1 X93.483 Y103.143 E.00358
G1 X95.538 Y103.143 E.06316
G1 X95.595 Y103.172 E.00195
G1 X94.831 Y103.567 F10800
G1 F2700
G1 X94.837 Y103.691 E.00381
G1 X94.724 Y103.88 E.00678
G1 X94.524 Y104.447 E.01847
G1 X94.464 Y104.948 E.01549
G1 X94.504 Y105.453 E.01556
G1 X94.609 Y105.849 E.01261
G1 X94.831 Y106.319 E.01596
G1 X94.828 Y106.422 E.00318
G1 X94.729 Y106.48 E.00352
G1 X93.719 Y106.48 E.03102
G1 X93.611 Y106.402 E.00409
G1 X93.422 Y105.815 E.01894
G1 X93.341 Y105.293 E.01623
G1 X93.33 Y104.936 E.01098
G1 X93.357 Y104.555 E.01173
G1 X93.47 Y103.999 E.01746
G1 X93.615 Y103.594 E.01319
G1 X93.721 Y103.52 E.00399
G1 X94.739 Y103.52 E.0313
G1 X94.796 Y103.549 E.00195
G1 X94.25 Y103.944 F10800
G1 F2700
G1 X94.265 Y104.048 E.00321
G1 X94.173 Y104.311 E.00858
G1 X94.089 Y104.989 E.021
G1 X94.127 Y105.473 E.01491
G1 X94.251 Y105.962 E.01551
G1 X94.227 Y106.063 E.00318
G1 X94.141 Y106.103 E.00293
G1 X93.994 Y106.103 E.00453
G1 X93.886 Y106.025 E.00409
G1 X93.789 Y105.719 E.00985
G1 X93.717 Y105.251 E.01454
G1 X93.708 Y104.938 E.00965
G1 X93.731 Y104.614 E.00997
G1 X93.832 Y104.108 E.01585
G1 X93.88 Y103.972 E.00444
G1 X93.986 Y103.897 E.004
G1 X94.158 Y103.897 E.00528
G1 X94.215 Y103.926 E.00195
G1 X95.344 Y104.35 F10800
G1 F2700
G1 X95.398 Y104.207 E.00469
G1 X95.586 Y103.906 E.01094
G1 X95.831 Y103.647 E.01094
G1 X96.122 Y103.443 E.01094
G1 X96.448 Y103.3 E.01094
G1 X96.796 Y103.224 E.01094
G1 X97.114 Y103.216 E.00976
G1 X97.416 Y103.261 E.00939
G1 X97.752 Y103.378 E.01094
G1 X98.059 Y103.56 E.01094
G1 X98.323 Y103.798 E.01094
G1 X98.535 Y104.084 E.01094
G1 X98.686 Y104.406 E.01094
G1 X98.77 Y104.752 E.01094
G1 X98.784 Y105.108 E.01094
G1 X98.728 Y105.459 E.01094
G1 X98.602 Y105.793 E.01094
G1 X98.414 Y106.094 E.01094
G1 X98.169 Y106.353 E.01094
G1 X97.878 Y106.557 E.01094
G1 X97.552 Y106.7 E.01094
G1 X97.204 Y106.776 E.01094
G1 X96.848 Y106.781 E.01094
G1 X96.498 Y106.716 E.01094
G1 X96.168 Y106.582 E.01094
G1 X95.9 Y106.409 E.00979
G1 X95.643 Y106.164 E.01091
G1 X95.465 Y105.916 E.00939
G1 X95.314 Y105.594 E.01094
G1 X95.23 Y105.248 E.01094
G1 X95.216 Y104.892 E.01094
G1 X95.272 Y104.541 E.01094
G1 X95.33 Y104.388 E.00502
G1 E-5.11111 F2400
;WIPE_START
G1 F2700
G1 X95.398 Y104.207 E-.17117
G1 X95.586 Y103.906 E-.31644
G1 X95.831 Y103.647 E-.31644
G1 X95.909 Y103.592 E-.08484
;WIPE_END
G1 Z.6 F10800
G1 X98.372 Y103.326 Z.6
G1 Z.2
G1 E6 F3000
G1 F2700
G1 X98.342 Y103.24 E.00278
G1 X98.401 Y103.156 E.00318
G1 X98.455 Y103.143 E.00168
G1 X100.648 Y103.155 E.06739
G1 X100.875 Y103.248 E.00755
G1 X100.983 Y103.255 E.00331
G1 X101.097 Y103.247 E.00351
G1 X101.375 Y103.143 E.00913
G1 X103.538 Y103.143 E.06647
G1 X103.63 Y103.19 E.00318
G1 X103.621 Y103.333 E.00442
G1 X103.262 Y103.714 E.01608
G1 X103.042 Y104.083 E.0132
G1 X102.899 Y104.489 E.01323
G1 X102.839 Y104.916 E.01323
G1 X102.866 Y105.346 E.01323
G1 X102.976 Y105.762 E.01323
G1 X103.163 Y106.142 E.01301
G1 X103.39 Y106.443 E.01159
G1 X103.619 Y106.662 E.00974
G1 X103.653 Y106.76 E.00318
G1 X103.593 Y106.844 E.00318
G1 X103.541 Y106.857 E.00166
G1 X101.361 Y106.857 E.06699
G1 X101.156 Y106.759 E.00698
G1 X101.015 Y106.745 E.00434
G1 X100.904 Y106.753 E.00344
G1 X100.625 Y106.857 E.00913
G1 X98.462 Y106.857 E.06647
G1 X98.37 Y106.81 E.00318
G1 X98.379 Y106.667 E.00442
G1 X98.738 Y106.286 E.01608
G1 X98.958 Y105.917 E.0132
G1 X99.101 Y105.511 E.01323
G1 X99.161 Y105.084 E.01323
G1 X99.134 Y104.654 E.01323
G1 X99.024 Y104.238 E.01323
G1 X98.832 Y103.851 E.01327
G1 X98.632 Y103.581 E.01033
G1 X98.396 Y103.356 E.01002
G1 X99.174 Y103.583 F10800
G1 F2700
G1 X99.274 Y103.524 E.00354
G1 X100.55 Y103.532 E.03923
G1 X100.72 Y103.592 E.00554
G1 X100.958 Y103.631 E.0074
G1 X101.114 Y103.623 E.00481
G1 X101.463 Y103.52 E.01119
G1 X102.739 Y103.52 E.03921
G1 X102.831 Y103.567 E.00318
G1 X102.837 Y103.691 E.00381
G1 X102.724 Y103.88 E.00678
G1 X102.524 Y104.447 E.01847
G1 X102.464 Y104.948 E.01549
G1 X102.504 Y105.453 E.01556
G1 X102.609 Y105.849 E.0126
G1 X102.831 Y106.319 E.01597
G1 X102.828 Y106.422 E.00318
G1 X102.729 Y106.48 E.00352
G1 X101.472 Y106.48 E.03862
G1 X101.183 Y106.384 E.00936
G1 X100.983 Y106.37 E.00616
G1 X100.761 Y106.404 E.0069
G1 X100.537 Y106.48 E.00728
G1 X99.261 Y106.48 E.03921
G1 X99.169 Y106.433 E.00318
G1 X99.162 Y106.312 E.00372
G1 X99.317 Y106.033 E.00982
G1 X99.453 Y105.646 E.01259
G1 X99.536 Y105.051 E.01847
G1 X99.496 Y104.547 E.01552
G1 X99.391 Y104.151 E.0126
G1 X99.171 Y103.686 E.01581
G1 X99.173 Y103.623 E.00195
G1 X99.776 Y103.945 F10800
G1 F2700
G1 X99.862 Y103.905 E.00294
G1 X100.465 Y103.908 E.01851
G1 X100.666 Y103.965 E.00642
G1 X100.984 Y104.007 E.00986
G1 X101.231 Y103.982 E.00763
G1 X101.534 Y103.897 E.00968
G1 X102.158 Y103.897 E.01917
G1 X102.25 Y103.944 E.00318
G1 X102.265 Y104.048 E.00321
G1 X102.173 Y104.311 E.00858
G1 X102.089 Y104.989 E.021
G1 X102.127 Y105.473 E.01491
G1 X102.251 Y105.962 E.01551
G1 X102.227 Y106.063 E.00318
G1 X102.141 Y106.103 E.00293
G1 X101.552 Y106.103 E.01812
G1 X101.313 Y106.03 E.00766
G1 X101.017 Y105.995 E.00919
G1 X100.709 Y106.031 E.00951
G1 X100.456 Y106.103 E.0081
G1 X99.852 Y106.103 E.01855
G1 X99.76 Y106.056 E.00318
G1 X99.744 Y105.956 E.00311
G1 X99.828 Y105.69 E.00857
G1 X99.911 Y105.01 E.02106
G1 X99.873 Y104.527 E.01488
G1 X99.752 Y104.046 E.01525
G1 X99.766 Y103.984 E.00195
G1 X100.272 Y104.312 F10800
G1 F2700
G1 X100.369 Y104.287 E.00309
G1 X100.62 Y104.34 E.00788
G1 X101.033 Y104.381 E.01276
G1 X101.261 Y104.358 E.00702
G1 X101.602 Y104.274 E.01079
G1 X101.669 Y104.274 E.00208
G1 X101.761 Y104.321 E.00318
G1 X101.781 Y104.401 E.00253
G1 X101.716 Y104.932 E.01643
G1 X101.77 Y105.604 E.02072
G1 X101.73 Y105.699 E.00318
G1 X101.63 Y105.723 E.00315
G1 X101.352 Y105.655 E.00878
G1 X100.961 Y105.622 E.01207
G1 X100.671 Y105.656 E.00899
G1 X100.355 Y105.724 E.00993
G1 X100.255 Y105.697 E.00318
G1 X100.218 Y105.601 E.00315
G1 X100.286 Y104.97 E.01949
G1 X100.233 Y104.408 E.01734
G1 X100.257 Y104.35 E.00195
G1 X100.703 Y104.753 F10800
G1 F2700
G1 X100.778 Y104.734 E.00238
G1 X100.987 Y104.755 E.00644
G1 X101.225 Y104.74 E.00733
G1 X101.319 Y104.782 E.00318
G1 X101.345 Y104.849 E.00222
G1 X101.355 Y105.15 E.00923
G1 X101.311 Y105.243 E.00318
G1 X101.232 Y105.266 E.00252
G1 X101.002 Y105.247 E.0071
G1 X100.768 Y105.264 E.00721
G1 X100.673 Y105.224 E.00318
G1 X100.647 Y105.149 E.00245
G1 X100.654 Y104.844 E.00937
G1 X100.684 Y104.788 E.00195
G1 E-5.11111 F2400
;WIPE_START
G1 F2700
G1 X100.778 Y104.734 E-.09647
G1 X100.987 Y104.755 E-.18638
G1 X101.225 Y104.74 E-.21191
G1 X101.319 Y104.782 E-.09189
G1 X101.345 Y104.849 E-.06411
G1 X101.354 Y105.117 E-.23813
;WIPE_END
G1 Z.6 F10800
G1 X103.216 Y104.892 Z.6
G1 Z.2
G1 E6 F3000
M73 P6 R12
G1 F2700
G1 X103.272 Y104.541 E.01094
G1 X103.398 Y104.207 E.01094
G1 X103.586 Y103.906 E.01094
G1 X103.831 Y103.647 E.01094
G1 X104.122 Y103.443 E.01094
G1 X104.448 Y103.3 E.01094
G1 X104.796 Y103.224 E.01094
G1 X105.114 Y103.216 E.00976
G1 X105.416 Y103.261 E.00939
G1 X105.752 Y103.378 E.01094
G1 X106.059 Y103.56 E.01094
G1 X106.323 Y103.798 E.01094
G1 X106.535 Y104.084 E.01094
G1 X106.686 Y104.406 E.01094
G1 X106.77 Y104.752 E.01094
G1 X106.784 Y105.108 E.01094
G1 X106.728 Y105.459 E.01094
G1 X106.602 Y105.793 E.01094
G1 X106.414 Y106.094 E.01094
G1 X106.169 Y106.353 E.01094
G1 X105.878 Y106.557 E.01094
G1 X105.552 Y106.7 E.01094
G1 X105.204 Y106.776 E.01094
G1 X104.848 Y106.781 E.01094
G1 X104.498 Y106.716 E.01094
G1 X104.201 Y106.599 E.00979
G1 X103.9 Y106.409 E.01094
G1 X103.643 Y106.164 E.01091
G1 X103.464 Y105.915 E.00942
G1 X103.314 Y105.594 E.01091
G1 X103.23 Y105.248 E.01094
G1 X103.217 Y104.932 E.00971
G1 E-5.11111 F2400
;WIPE_START
G1 F2700
G1 X103.272 Y104.541 E-.35137
G1 X103.398 Y104.207 E-.31643
G1 X103.529 Y103.997 E-.22108
;WIPE_END
G1 Z.6 F10800
G1 X106.376 Y103.338 Z.6
G1 Z.2
G1 E6 F3000
G1 F2700
G1 X106.342 Y103.24 E.00318
G1 X106.401 Y103.156 E.00318
G1 X106.454 Y103.143 E.00166
G1 X108.639 Y103.143 E.06715
G1 X108.694 Y103.157 E.00175
G1 X108.844 Y103.241 E.00528
G1 X108.985 Y103.255 E.00434
G1 X109.097 Y103.247 E.00344
G1 X109.375 Y103.143 E.00913
G1 X111.538 Y103.143 E.06647
G1 X111.63 Y103.19 E.00318
G1 X111.621 Y103.333 E.00442
G1 X111.262 Y103.714 E.01608
G1 X111.042 Y104.083 E.0132
G1 X110.899 Y104.489 E.01323
G1 X110.839 Y104.916 E.01323
G1 X110.866 Y105.346 E.01323
G1 X110.976 Y105.762 E.01323
G1 X111.163 Y106.142 E.01301
G1 X111.389 Y106.443 E.01156
G1 X111.619 Y106.662 E.00978
G1 X111.653 Y106.76 E.00318
G1 X111.593 Y106.844 E.00318
G1 X111.541 Y106.857 E.00166
G1 X109.36 Y106.857 E.06703
G1 X109.16 Y106.761 E.0068
G1 X109.022 Y106.745 E.00428
G1 X108.91 Y106.753 E.00345
G1 X108.627 Y106.857 E.00929
G1 X106.462 Y106.857 E.06652
G1 X106.37 Y106.81 E.00318
G1 X106.379 Y106.667 E.00442
G1 X106.738 Y106.286 E.01608
G1 X106.958 Y105.917 E.0132
G1 X107.101 Y105.511 E.01323
G1 X107.161 Y105.084 E.01323
G1 X107.134 Y104.654 E.01323
G1 X107.024 Y104.238 E.01323
G1 X106.832 Y103.851 E.01327
G1 X106.632 Y103.581 E.01033
G1 X106.405 Y103.365 E.00963
G1 X107.172 Y103.578 F10800
G1 F2700
G1 X107.271 Y103.52 E.00352
G1 X108.541 Y103.52 E.03904
G1 X108.596 Y103.534 E.00175
G1 X108.815 Y103.616 E.00718
G1 X109.017 Y103.63 E.00623
G1 X109.239 Y103.596 E.0069
G1 X109.463 Y103.52 E.00727
G1 X110.739 Y103.52 E.03921
G1 X110.831 Y103.567 E.00318
G1 X110.838 Y103.688 E.00372
G1 X110.683 Y103.967 E.00982
G1 X110.547 Y104.354 E.01259
G1 X110.464 Y104.949 E.01847
G1 X110.504 Y105.453 E.01552
G1 X110.609 Y105.849 E.0126
G1 X110.831 Y106.319 E.01597
G1 X110.828 Y106.422 E.00318
G1 X110.729 Y106.48 E.00352
G1 X109.472 Y106.48 E.03863
G1 X109.191 Y106.386 E.0091
